icons/glyphs/glyph-volume-low.svg

<?xml version="1.0" encoding="UTF-8" standalone="no"?><svg height="22" viewBox="0 0 5.8208332 5.8208335" width="22" xmlns="http://www.w3.org/2000/svg"><sodipodi:namedview/><metadata><rdf:RDF><cc:Work><dc:format>image/svg+xml</dc:format><dc:type/><dc:title/></cc:Work></rdf:RDF></metadata><path d="m11.853516 0-9.1171879 7.3339844h-2.7363281v7.3320316h2.7363281l9.1171879 7.333984z" fill="#fff" transform="scale(.26458333)"/><path d="m14.634766 1.9335938v2.0957031c3.148608 1.1346209 5.314453 3.784781 5.314453 6.8164061 0 3.031624-2.165845 5.681785-5.314453 6.816406v2.097657c4.242689-1.238502 7.365235-4.719506 7.365234-8.914063 0-4.1945384-3.122575-7.6735927-7.365234-8.9121092zm-.041016 4.1914062-.0059 2.2578125c.77793.5416913 1.291015 1.4297332 1.291015 2.4570315.000001 1.027295-.51308 1.913387-1.291015 2.455078l.0059 2.273437c1.904652-.75242 3.257813-2.589718 3.257812-4.722656 0-2.1330161-1.353055-3.9683344-3.257812-4.720703z" fill="#fff" opacity=".3" transform="scale(.26458333)"/></svg>

<?xml version="1.0" encoding="UTF-8" standalone="no"?>
<!-- Created with Inkscape (http://www.inkscape.org/) -->

<svg
   xmlns:dc="http://purl.org/dc/elements/1.1/"
   xmlns:cc="http://creativecommons.org/ns#"
   xmlns:rdf="http://www.w3.org/1999/02/22-rdf-syntax-ns#"
   xmlns:svg="http://www.w3.org/2000/svg"
   xmlns="http://www.w3.org/2000/svg"
   xmlns:sodipodi="http://sodipodi.sourceforge.net/DTD/sodipodi-0.dtd"
   xmlns:inkscape="http://www.inkscape.org/namespaces/inkscape"
   width="22"
   height="22"
   viewBox="0 0 5.8208332 5.8208335"
   version="1.1"
   id="svg8"
   inkscape:version="0.92+devel 15698 custom"
   sodipodi:docname="glyph-volume-low.svg">
  <defs
     id="defs2" />
  <sodipodi:namedview
     id="base"
     pagecolor="#002466"
     bordercolor="#ffffff"
     borderopacity="0.29019608"
     inkscape:pageopacity="1"
     inkscape:pageshadow="2"
     inkscape:zoom="18.681818"
     inkscape:cx="11"
     inkscape:cy="11"
     inkscape:document-units="px"
     inkscape:current-layer="g4349"
     inkscape:document-rotation="0"
     showgrid="false"
     units="px"
     inkscape:showpageshadow="false"
     borderlayer="true"
     inkscape:window-width="1920"
     inkscape:window-height="1054"
     inkscape:window-x="0"
     inkscape:window-y="0"
     inkscape:window-maximized="1"
     inkscape:snap-object-midpoints="true"
     inkscape:snap-page="true"
     inkscape:snap-bbox="true"
     inkscape:snap-bbox-edge-midpoints="true"
     inkscape:snap-midpoints="true"
     inkscape:snap-center="true"
     inkscape:bbox-paths="true"
     inkscape:bbox-nodes="true"
     inkscape:snap-bbox-midpoints="true"
     inkscape:snap-smooth-nodes="true"
     inkscape:snap-intersection-paths="true"
     inkscape:object-paths="true"
     inkscape:snap-global="false" />
  <metadata
     id="metadata5">
    <rdf:RDF>
      <cc:Work
         rdf:about="">
        <dc:format>image/svg+xml</dc:format>
        <dc:type
           rdf:resource="http://purl.org/dc/dcmitype/StillImage" />
        <dc:title></dc:title>
      </cc:Work>
    </rdf:RDF>
  </metadata>
  <g
     id="g4349"
     inkscape:label="Glyph">
    <path
       style="fill:#ffffff;fill-opacity:1;stroke:none;stroke-width:1.83333325"
       d="M 11.853516,0 2.7363281,7.3339844 H 0 V 14.666016 H 2.7363281 L 11.853516,22 Z"
       transform="scale(0.26458333)"
       id="path4391"
       inkscape:connector-curvature="0"
       inkscape:label="#2" />
    <path
       style="opacity:0.3;fill:#ffffff;fill-opacity:1;stroke:none;stroke-width:1.83333325"
       d="m 14.634766,1.9335938 v 2.0957031 c 3.148608,1.1346209 5.314453,3.784781 5.314453,6.8164061 0,3.031624 -2.165845,5.681785 -5.314453,6.816406 v 2.097657 C 18.877455,18.521264 22.000001,15.04026 22,10.845703 22,6.6511646 18.877425,3.1721103 14.634766,1.9335938 Z M 14.59375,6.125 14.58785,8.3828125 c 0.77793,0.5416913 1.291015,1.4297332 1.291015,2.4570315 1e-6,1.027295 -0.51308,1.913387 -1.291015,2.455078 l 0.0059,2.273437 c 1.904652,-0.75242 3.257813,-2.589718 3.257812,-4.722656 0,-2.1330161 -1.353055,-3.9683344 -3.257812,-4.720703 z"
       transform="scale(0.26458333)"
       id="path4341"
       inkscape:connector-curvature="0"
       inkscape:label="#1" />
  </g>
</svg>
